X: 7
T:Hanter Dro "Clam" No 1
M:3/4
L:1/16
Q:100
C:Traditionnel
R:Hanter Dro "Clam"
O:France
A:Bretagne
D:
Z:J.M. HENRY
K:C
|: G2Gc e2d2 e2c2 | G2Gc e2d2 e2c2 | G2Gc e2d2 e4 :| !
g2fe d2f2  e2c2 | c2Bc e2dc  d4| d4| c2cc B2c2 d4 | G2Bd f2e2 c4 ||
